!!!OTL: Der verkleidete Markgrafensohn.
!!!OTL-incipit: Es freit ein reicher Kaufmannssohn,
!!!ARE: Europa, Mitteleuropa, Deutschland / France, Lothringen, Weiler
!!!YOR: 1, S. 61
!!    1932 gedruckt (17. Jh. ?)
!!!SCT: Q0006E
!!!YEM: Copyright 1995, estate of Helmut Schaffrath.
**kern	**text
*ICvox	*
*M3/4	*
*k[f#]	*
*G:	*
!LO:TX:a:t=Vgl. Pinck, Weiſen 2, Nr. 97 und Pinck, Goethe S. 75.	!
{8d	Es
=1	=1
8d	freit
8d	ein
(4g	rei-
8f#)	.
8e	-cher
=2	=2
8f#	Kaufmannsſohn,
8g	.
4a	.
8r}	.
{8a	er
=3	=3
8b	freit
8a	die
4g	Kö-
4f#	-nigs-
=4	=4
4e	-toch-
4d	-ter.
8r}	.
{8a	Er
=5	=5
(<12a	freit
12a	ſie
12b)	nit
8a	län-
8a	-ger
4dd	als
=6	=6
!LO:TUP:a	!
(12ccL	ſie-
12bJ	.
12a)	-ben
(4g	Jahr
8a)}	.
{8b	und
=7	=7
16ccL	kann
16bJ	.
8a	ſie
(<4b	nicht
8a)	.
8g	er-
=8	=8
4f#	-wer-
4g	-hen.
8r}	.
==	==
!!!AGN: Ballade, Braut - Werbung
!! Version mit zwei Sechzehnteln kodiert (gleichberechtigte Fassungen)
!!!ONB: ESAC (Essen Associative Code) Database: BALLADE
!!!AMT: simple triple
!!!AIN: vox
!!!EED: Helmut Schaffrath
!!!EEV: 1.0
!!!RDF**kern: <= below
!!!source: Deutsche Volkslieder mit ihren Melodien. Balladen. Herausgegeben vom Deutschen Volksliedarchiv. Erster Band Balladen. Berlin und Leipzig 1935.
!!!page: 61
!!!ENC: Anna Maria Matuszewska
!!!EEV: 2025/02/13
*-	*-
